icon-themes/sifr_svg/cmd/lc_basicshapes.ring.svg

<svg viewBox="0 0 24 24" xmlns="http://www.w3.org/2000/svg"><g fill="#555753"><path d="m12 4a8 8 0 0 0 -8 8 8 8 0 0 0 8 8 8 8 0 0 0 8-8 8 8 0 0 0 -8-8zm0 5a3 3 0 0 1 3 3 3 3 0 0 1 -3 3 3 3 0 0 1 -3-3 3 3 0 0 1 3-3z" opacity=".35"/><path d="m12 2a10 10 0 0 0 -10 10 10 10 0 0 0 10 10 10 10 0 0 0 10-10 10 10 0 0 0 -10-10zm0 2a8 8 0 0 1 8 8 8 8 0 0 1 -8 8 8 8 0 0 1 -8-8 8 8 0 0 1 8-8z"/><path d="m12 7a5 5 0 0 0 -5 5 5 5 0 0 0 5 5 5 5 0 0 0 5-5 5 5 0 0 0 -5-5zm0 2a3 3 0 0 1 3 3 3 3 0 0 1 -3 3 3 3 0 0 1 -3-3 3 3 0 0 1 3-3z"/></g></svg>

<svg xmlns="http://www.w3.org/2000/svg" viewBox="0 0 24 24">
  <path
     style="opacity:0.35;fill:#555753"
     d="M 12 4 A 8 8 0 0 0 4 12 A 8 8 0 0 0 12 20 A 8 8 0 0 0 20 12 A 8 8 0 0 0 12 4 z M 12 9 A 3 3 0 0 1 15 12 A 3 3 0 0 1 12 15 A 3 3 0 0 1 9 12 A 3 3 0 0 1 12 9 z "
     />
  <path
     style="fill:#555753"
     d="M 12 2 A 10 10 0 0 0 2 12 A 10 10 0 0 0 12 22 A 10 10 0 0 0 22 12 A 10 10 0 0 0 12 2 z M 12 4 A 8 8 0 0 1 20 12 A 8 8 0 0 1 12 20 A 8 8 0 0 1 4 12 A 8 8 0 0 1 12 4 z "
     />
  <path
     style="fill:#555753"
     d="m 12,7 a 5,5 0 0 0 -5,5 5,5 0 0 0 5,5 5,5 0 0 0 5,-5 5,5 0 0 0 -5,-5 z m 0,2 a 3,3 0 0 1 3,3 3,3 0 0 1 -3,3 3,3 0 0 1 -3,-3 3,3 0 0 1 3,-3 z"
     />
</svg>
